public/i/love.svg

<?xml version="1.0" encoding="UTF-8" standalone="no"?>
<svg width="100px" height="78px" viewBox="0 0 100 78" version="1.1" xmlns="http://www.w3.org/2000/svg" xmlns:xlink="http://www.w3.org/1999/xlink" xmlns:sketch="http://www.bohemiancoding.com/sketch/ns">
    <!-- Generator: Sketch 3.3.2 (12043) - http://www.bohemiancoding.com/sketch -->
    <title>Дизайн</title>
    <desc>Created with Sketch.</desc>
    <defs></defs>
    <g id="Главная-страница" stroke="none" stroke-width="1" fill="none" fill-rule="evenodd" sketch:type="MSPage">
        <g id="Desktop-HD" sketch:type="MSArtboardGroup" transform="translate(-311.000000, -3772.000000)">
            <g id="Подать-объявление" sketch:type="MSLayerGroup" transform="translate(305.000000, 3672.000000)">
                <g id="Лаконичный-+-Дизайн" transform="translate(0.000000, 99.000000)" sketch:type="MSShapeGroup">
                    <g id="Дизайн" transform="translate(5.000000, 0.000000)">
                        <path d="M1,5.99616376 C1,3.23685871 3.22884957,1 5.99322906,1 L96.0067709,1 C98.7644552,1 101,3.24220335 101,5.99616376 L101,59.0038362 C101,61.7631413 98.7647948,64 95.9930877,64 L63,64 L63.57591,68.0313698 C63.8101284,69.670899 65.1976808,71.5988404 66.6861392,72.3430696 L70.2046438,74.1023219 C71.1961917,74.5980958 72,75.8877296 72,77 L72,77.9906311 C72,78.5480902 71.5567382,79 71.0032175,79 L30.9967825,79 C30.4462747,79 30,78.5566468 30,77.9906311 L30,77 C30,75.8954305 30.7963181,74.601841 31.7953562,74.1023219 L35.3138608,72.3430696 C36.7973745,71.6013127 38.1904462,69.6668769 38.42409,68.0313698 L39,64 L6.00691225,64 C3.24167097,64 1,61.7577966 1,59.0038362 L1,5.99616376 Z" id="Rectangle-54" stroke="#2E8AE6" stroke-width="2"></path>
                        <path d="M67.3306925,33.9026679 C71.589313,26.3981452 69.0068592,20.0414807 63.6233992,17.5561316 C58.5631208,15.2290131 52.5695734,17.4119253 50.2329533,22.4545742 C47.8876391,17.4119253 41.8940917,15.2290131 36.8254189,17.5561316 C31.4503533,20.0414807 28.8774929,26.3981452 33.1280189,33.9026679 C36.146378,39.2343393 40.887972,43.2736413 50.2329533,50.4711538 C59.5710393,43.2736413 64.3093354,39.2343393 67.3306925,33.9026679 Z" id="Imported-Layers-Copy" stroke="#FF4C4C" stroke-width="2"></path>
                        <rect id="Rectangle-54" fill="#2E8AE6" x="26" y="62" width="50" height="2"></rect>
                    </g>
                </g>
            </g>
        </g>
    </g>
</svg>

<?xml version="1.0" encoding="utf-8"?>
<!-- Generator: Adobe Illustrator 15.0.0, SVG Export Plug-In . SVG Version: 6.00 Build 0)  -->
<!DOCTYPE svg PUBLIC "-//W3C//DTD SVG 1.1//EN" "http://www.w3.org/Graphics/SVG/1.1/DTD/svg11.dtd">
<svg version="1.1" id="Layer_1" xmlns:sketch="http://www.bohemiancoding.com/sketch/ns"
	 xmlns="http://www.w3.org/2000/svg" xmlns:xlink="http://www.w3.org/1999/xlink" x="0px" y="0px" width="102px" height="79.875px"
	 viewBox="-0.875 -0.875 102 79.875" enable-background="new -0.875 -0.875 102 79.875" xml:space="preserve">
<title>Дизайн</title>
<desc>Created with Sketch.</desc>
<g id="Главная-страница" sketch:type="MSPage">
	<g id="Desktop-HD" transform="translate(-311.000000, -3772.000000)" sketch:type="MSArtboardGroup">
		<g id="Подать-объявление" transform="translate(305.000000, 3672.000000)" sketch:type="MSLayerGroup">
			<g id="Лаконичный-_x2B_-Дизайн" transform="translate(0.000000, 99.000000)" sketch:type="MSShapeGroup">
				<g id="Дизайн" transform="translate(5.000000, 0.000000)">
					<path id="Rectangle-54" fill="none" stroke="#2E8AE6" stroke-width="2" d="M1,5.996C1,3.237,3.229,1,5.993,1h90.014
						C98.765,1,101,3.242,101,5.996v53.008c0,2.76-2.235,4.996-5.007,4.996H63l0.576,4.031c0.234,1.64,1.621,3.567,3.109,4.312
						l3.52,1.759C71.196,74.598,72,75.888,72,77v0.99c0,0.558-0.443,1.01-0.996,1.01H30.997C30.446,79,30,78.557,30,77.99V77
						c0-1.104,0.796-2.398,1.795-2.897l3.519-1.759c1.483-0.742,2.876-2.677,3.11-4.312L39,64H6.007C3.242,64,1,61.758,1,59.004
						V5.996z"/>
					<path id="Imported-Layers-Copy" fill="none" stroke="#FF4C4C" stroke-width="2" d="M67.33,33.903
						c4.26-7.505,1.677-13.861-3.707-16.347c-5.061-2.327-11.054-0.144-13.39,4.898c-2.345-5.042-8.339-7.226-13.408-4.898
						c-5.375,2.485-7.948,8.842-3.697,16.347c3.019,5.332,7.76,9.371,17.105,16.568C59.571,43.273,64.31,39.234,67.33,33.903z"/>
					<rect id="Rectangle-54_1_" x="26" y="62" fill="#2E8AE6" width="50" height="2"/>
				</g>
			</g>
		</g>
	</g>
</g>
</svg>
